svg/u1f3bd.svg

<svg viewBox="0 0 128 128" xmlns="http://www.w3.org/2000/svg">
  <g>
    <g>
      <path d="M64,42.2c-8.44,0-14.92-2.41-19.25-7.16c-3.62-3.97-7.65-11.75-6.29-26.26l0.05-0.54 c0.13-1.73,3.39-2.58,4.41-2.74l0.03,0c1.52,0,2.94,1.17,5.33,6.97c2.71,6.55,8.88,10.79,15.73,10.79 c5.19,0,12.53-0.91,16.22-8.77c0.57-1.22,1.07-2.34,1.52-3.34c1.68-3.76,2.54-5.59,3.7-5.64c0.75,0.17,3.44,1.51,3.85,2.97 c0.15,1.26,1.77,16.87-6.51,26.33C78.48,39.71,72.16,42.2,64,42.2z" fill="#2167A1"/>
      <path d="M43.03,7c0.43,0.03,1.54,0.42,3.86,6.04c2.94,7.12,9.66,11.72,17.12,11.72 c3.23,0,13.05,0,17.58-9.63c0.58-1.24,1.09-2.37,1.54-3.37c0.84-1.88,1.78-3.98,2.37-4.65c0.89,0.38,2.1,1.21,2.34,1.71 c0.21,1.94,1.47,16.26-6.16,24.99c-4,4.58-9.95,6.9-17.66,6.9c-8,0-14.11-2.25-18.14-6.67c-3.42-3.75-7.21-11.15-5.91-25.11 C39.97,8.69,39.99,8.5,40,8.36C40.17,7.95,41.61,7.25,43.03,7 M42.94,4c-0.05,0-0.1,0-0.16,0c0,0-5.52,0.78-5.78,4.12 C36.75,11.47,32.45,43.7,64,43.7S90.77,8.19,90.77,8.19C90.18,5.68,86.21,4.01,85.53,4c-0.02,0-0.03,0-0.04,0 c-2.72,0-3.66,3.55-6.62,9.84c-2.98,6.33-8.56,7.91-14.87,7.91s-11.92-4-14.34-9.86C47.29,6.15,45.54,4,42.94,4L42.94,4z" fill="#01579B"/>
    </g>
    <path d="M107.87,49.47c-0.24-0.38-2.87-3.35-5-7.59c-5.46-10.88,0.42-26.52-4.83-36.07L85.22,4 c1.24,7.24-1.17,15.76-1.62,17.72C82.56,26.2,77.91,37.53,64,37.53S45.44,26.2,44.4,21.72C43.95,19.76,41.54,11.24,42.78,4 L29.97,5.81c-5.25,9.55,0.63,25.19-4.83,36.07c-2.13,4.24-4.76,7.21-5,7.59c0,0,4.07,42.46-0.39,69.36 c6.92,2.03,25.59,3.05,44.26,3.05c18.67,0,37.34-1.02,44.26-3.05C103.8,91.94,107.87,49.47,107.87,49.47z" fill="#56BFE6"/>
    <path d="M100.38,20.67C80.99,44.42,46.75,68.01,21.77,82.68c0.11,9.2-0.11,19.13-1.01,28.11 c23.16-12.41,60.41-35.99,86.5-62.07c-0.94-1.19-2.82-3.66-4.42-6.84C99.72,35.69,100.28,27.95,100.38,20.67z" fill="#FFCA28"/>
    <path d="M98.05,36.75c0.43,2.24,1.11,4.41,2.14,6.48c0.94,1.87,2.04,3.66,3.26,5.37 c0.99,1.4,2.3,3.16,4.22,3.22c0,0,0.13-0.08,0.28-1.05c0.17-1.17-0.07-1.3-0.07-1.3c-0.24-0.38-2.87-3.35-5-7.59 c-5.46-10.88,0.42-26.52-4.83-36.07c-0.47-0.4-2.52-0.59-2.75-0.39c1.03,2.75,1.58,5.28,1.9,8.21c0.35,3.13,0.25,6.31,0.19,9.45 C97.3,27.65,97.2,32.32,98.05,36.75z" fill="#039BE5"/>
    <path d="M29.7,36.75c-0.43,2.24-1.11,4.41-2.14,6.48c-0.94,1.87-2.04,3.66-3.26,5.37 c-0.99,1.4-2.3,3.16-4.22,3.22c0,0-0.13-0.08-0.28-1.05c-0.17-1.17,0.07-1.3,0.07-1.3c0.24-0.38,2.87-3.35,5-7.59 c5.46-10.88-0.42-26.52,4.83-36.07c0.47-0.4,2.52-0.59,2.75-0.39c-1.03,2.75-1.58,5.28-1.9,8.21c-0.35,3.13-0.25,6.31-0.19,9.45 C30.46,27.65,30.55,32.32,29.7,36.75z" fill="#039BE5"/>
    <path d="M88.1,5.27c-0.02-0.37-0.16-0.62-0.37-0.8C87.07,3.95,85.21,3.91,84.82,4 c1.24,7.24-1.17,15.76-1.62,17.72c-1.02,4.44-5.6,15.58-19.2,15.8c-13.6-0.22-18.18-11.36-19.2-15.8 C44.35,19.76,41.94,11.24,43.18,4c-0.4-0.09-2.25-0.05-2.91,0.47c-0.22,0.18-0.36,0.43-0.37,0.8c-0.24,5.6,0.48,11.02,1.82,16.45 c0.07,0.27,0.12,0.49,0.16,0.66c1.91,8.28,8.84,17.94,22.12,18.13c13.28-0.19,20.21-9.84,22.12-18.13 c0.04-0.17,0.09-0.39,0.16-0.66C87.62,16.29,88.34,10.87,88.1,5.27z" fill="#039BE5"/>
  </g>
</svg>

<svg viewBox="0 0 128 128" xmlns="http://www.w3.org/2000/svg">
  <defs/>
  <path d="M64,42.2 C55.56,42.2 49.08,39.79 44.75,35.04 C41.13,31.07 37.1,23.29 38.46,8.78 L38.51,8.24 C38.64,6.51 41.9,5.66 42.92,5.5 L42.95,5.5 C44.47,5.5 45.89,6.67 48.28,12.47 C50.99,19.02 57.16,23.26 64.01,23.26 C69.2,23.26 76.54,22.35 80.23,14.49 C80.8,13.27 81.3,12.15 81.75,11.15 C83.43,7.39 84.29,5.56 85.45,5.51 C86.2,5.68 88.89,7.02 89.3,8.48 C89.45,9.74 91.07,25.35 82.79,34.81 C78.48,39.71 72.16,42.2 64,42.2 Z" fill="#2167A1"/>
  <path d="M43.03,7 C43.46,7.03 44.57,7.42 46.89,13.04 C49.83,20.16 56.55,24.76 64.01,24.76 C67.24,24.76 77.06,24.76 81.59,15.13 C82.17,13.89 82.68,12.76 83.13,11.76 C83.97,9.88 84.91,7.78 85.5,7.11 C86.39,7.49 87.6,8.32 87.84,8.82 C88.05,10.76 89.31,25.08 81.68,33.81 C77.68,38.39 71.73,40.71 64.02,40.71 C56.02,40.71 49.91,38.46 45.88,34.04 C42.46,30.29 38.67,22.89 39.97,8.93 C39.97,8.69 39.99,8.5 40,8.36 C40.17,7.95 41.61,7.25 43.03,7 M42.94,4 C42.89,4 42.84,4 42.78,4 C42.78,4 37.26,4.78 37,8.12 C36.75,11.47 32.45,43.7 64,43.7 C95.55,43.7 90.77,8.19 90.77,8.19 C90.18,5.68 86.21,4.01 85.53,4 C85.51,4 85.5,4 85.49,4 C82.77,4 81.83,7.55 78.87,13.84 C75.89,20.17 70.31,21.75 64,21.75 C57.69,21.75 52.08,17.75 49.66,11.89 C47.29,6.15 45.54,4 42.94,4 L42.94,4 Z" fill="#01579B"/>
  <path d="M107.87,49.47 C107.63,49.09 105,46.12 102.87,41.88 C97.41,31 103.29,15.36 98.04,5.81 L85.22,4 C86.46,11.24 84.05,19.76 83.6,21.72 C82.56,26.2 77.91,37.53 64,37.53 C50.09,37.53 45.44,26.2 44.4,21.72 C43.95,19.76 41.54,11.24 42.78,4 L29.97,5.81 C24.72,15.36 30.6,31 25.14,41.88 C23.01,46.12 20.38,49.09 20.14,49.47 C20.14,49.47 24.21,91.93 19.75,118.83 C26.67,120.86 45.34,121.88 64.01,121.88 C82.68,121.88 101.35,120.86 108.27,118.83 C103.8,91.94 107.87,49.47 107.87,49.47 Z" fill="#56BFE6"/>
  <path d="M100.38,20.67 C80.99,44.42 46.75,68.01 21.77,82.68 C21.88,91.88 21.66,101.81 20.76,110.79 C43.92,98.38 81.17,74.8 107.26,48.72 C106.32,47.53 104.44,45.06 102.84,41.88 C99.72,35.69 100.28,27.95 100.38,20.67 Z" fill="#FFCA28"/>
  <path d="M98.05,36.75 C98.48,38.99 99.16,41.16 100.19,43.23 C101.13,45.1 102.23,46.89 103.45,48.6 C104.44,50 105.75,51.76 107.67,51.82 C107.67,51.82 107.8,51.74 107.95,50.77 C108.12,49.6 107.88,49.47 107.88,49.47 C107.64,49.09 105.01,46.12 102.88,41.88 C97.42,31 103.3,15.36 98.05,5.81 C97.58,5.41 95.53,5.22 95.3,5.42 C96.33,8.17 96.88,10.7 97.2,13.63 C97.55,16.76 97.45,19.94 97.39,23.08 C97.3,27.65 97.2,32.32 98.05,36.75 Z" fill="#039BE5"/>
  <path d="M29.7,36.75 C29.27,38.99 28.59,41.16 27.56,43.23 C26.62,45.1 25.52,46.89 24.3,48.6 C23.31,50 22,51.76 20.08,51.82 C20.08,51.82 19.95,51.74 19.8,50.77 C19.63,49.6 19.87,49.47 19.87,49.47 C20.11,49.09 22.74,46.12 24.87,41.88 C30.33,31 24.45,15.36 29.7,5.81 C30.17,5.41 32.22,5.22 32.45,5.42 C31.42,8.17 30.87,10.7 30.55,13.63 C30.2,16.76 30.3,19.94 30.36,23.08 C30.46,27.65 30.55,32.32 29.7,36.75 Z" fill="#039BE5"/>
  <path d="M88.1,5.27 C88.08,4.9 87.94,4.65 87.73,4.47 C87.07,3.95 85.21,3.91 84.82,4 C86.06,11.24 83.65,19.76 83.2,21.72 C82.18,26.16 77.6,37.3 64,37.52 C50.4,37.3 45.82,26.16 44.8,21.72 C44.35,19.76 41.94,11.24 43.18,4 C42.78,3.91 40.93,3.95 40.27,4.47 C40.05,4.65 39.91,4.9 39.9,5.27 C39.66,10.87 40.38,16.29 41.72,21.72 C41.79,21.99 41.84,22.21 41.88,22.38 C43.79,30.66 50.72,40.32 64,40.51 C77.28,40.32 84.21,30.67 86.12,22.38 C86.16,22.21 86.21,21.99 86.28,21.72 C87.62,16.29 88.34,10.87 88.1,5.27 Z" fill="#039BE5"/>
</svg>
